X:0332
T:O gin ye were dead Gude-man.
T:For the Ger. Flute
M:C
L:1/8
Q:1/4=100
I: || ::
Z:Jack Campin * www.campin.me.uk * 2009
K:G
DE|G2G2 d2G2|B2A2 A3 B|G2G2 d2G2|B2g2 d3d|
   efgd BcdB|edcB A3 B|G2g2 dedc|B2G2 G2||
d2|g3 a gabg|agab a2ge|dega gaba|g2g2 d3d|
   efgd BcdB|edcB A2BA|G2g2 dedc|B2G2 G2:|
<end>
<start>
